icons/svg/tap_20.svg

<?xml version="1.0" encoding="UTF-8"?>
<svg width="20px" height="20px" viewBox="0 0 20 20" version="1.1" xmlns="http://www.w3.org/2000/svg" xmlns:xlink="http://www.w3.org/1999/xlink">
    <!-- Generator: Sketch 59.1 (86144) - https://sketch.com -->
    <title>simple-mode_20</title>
    <desc>Created with Sketch.</desc>
    <g id="New-Icon" stroke="none" stroke-width="1" fill="none" fill-rule="evenodd">
        <g id="simple-mode_20" fill="#171B1F">
            <path d="M5.4817,3.5405 C6.1207,2.9055 7.1597,2.9085 7.7957,3.5465 L7.7957,3.5465 L12.5557,8.5455 L12.4827,8.1765 C12.2907,7.2175 12.8197,6.2755 13.7387,5.9385 C14.2207,5.7595 14.7567,5.9895 14.9547,6.4605 L14.9547,6.4605 L17.5167,12.5385 C18.4107,14.7695 18.0387,17.0685 16.5487,18.5465 C15.5737,19.5145 14.2957,19.9975 13.0177,19.9975 C11.7297,19.9975 10.4427,19.5065 9.4657,18.5255 L9.4657,18.5255 L6.9277,15.9595 C6.4917,15.5195 6.2547,14.9365 6.2587,14.3185 C6.2617,13.6995 6.5077,13.1195 6.9487,12.6855 C7.68639231,11.9578077 8.46550473,11.1881036 9.04434406,10.6121636 L9.5047,10.1525 L5.4647,5.8415 C5.1677,5.5445 4.9987,5.1335 4.99969559,4.6955 C5.0007,4.2575 5.1727,3.8475 5.4817,3.5405 Z M7.0797,4.2445 C6.8407,4.0045 6.4367,4.0035 6.1857,4.2505 C6.0667,4.3695 6.0007,4.5285 5.9997,4.6985 C5.9997,4.8685 6.0647,5.0275 6.1827,5.1475 L6.1827,5.1475 L10.5627,9.8195 C10.7447,10.0135 10.7427,10.3165 10.5577,10.5085 C10.1777,10.9015 8.8597,12.2055 7.6507,13.3975 C7.3997,13.6445 7.2607,13.9735 7.2587,14.3245 C7.2567,14.6755 7.3907,15.0065 7.6387,15.2565 L7.6387,15.2565 L10.1757,17.8215 C11.7327,19.3845 14.2767,19.3915 15.8447,17.8365 C17.0627,16.6285 17.3417,14.7905 16.5927,12.9195 L16.5927,12.9195 L14.0337,6.8495 C13.6297,7.0435 13.3687,7.5075 13.4627,7.9815 L13.4627,7.9815 L13.8727,10.0415 C13.9167,10.2595 13.8107,10.4805 13.6137,10.5835 C13.4147,10.6845 13.1757,10.6455 13.0207,10.4835 L13.0207,10.4835 Z M7,0.0001 C9.757,0.0001 12,2.3171 12,5.1661 C12,5.4421 11.776,5.6661 11.5,5.6661 C11.224,5.6661 11,5.4421 11,5.1661 C11,2.8691 9.206,1.0001 7,1.0001 C4.794,1.0001 3,2.8691 3,5.1661 C3,7.4631 4.794,9.3321 7,9.3321 C7.276,9.3321 7.5,9.5561 7.5,9.8321 C7.5,10.1081 7.276,10.3321 7,10.3321 C4.243,10.3321 2,8.0151 2,5.1661 C2,2.3171 4.243,0.0001 7,0.0001 Z"></path>
        </g>
    </g>
</svg>

<svg width="20" height="20" xmlns="http://www.w3.org/2000/svg"><path d="M5.482 3.54a1.64 1.64 0 012.314.006l4.76 5-.073-.37a1.963 1.963 0 011.256-2.237.956.956 0 011.216.521l2.562 6.079c.894 2.23.522 4.53-.968 6.008a4.995 4.995 0 01-3.531 1.45 4.997 4.997 0 01-3.552-1.471L6.928 15.96a2.294 2.294 0 01-.67-1.642 2.292 2.292 0 01.69-1.633c.738-.727 1.518-1.497 2.096-2.073l.46-.46-4.04-4.31A1.61 1.61 0 015 4.696c0-.438.173-.848.482-1.155zm1.598.705A.638.638 0 006 4.699c0 .17.065.329.183.449l4.38 4.671a.5.5 0 01-.005.69c-.38.393-1.698 1.697-2.907 2.889-.251.247-.39.575-.392.927-.002.35.132.682.38.932l2.537 2.565a4.02 4.02 0 005.669.015c1.218-1.209 1.497-3.046.748-4.918l-2.56-6.07a1.046 1.046 0 00-.57 1.132l.41 2.06a.5.5 0 01-.852.442zM7 0c2.757 0 5 2.317 5 5.166a.5.5 0 01-1 0C11 2.87 9.206 1 7 1S3 2.87 3 5.166c0 2.297 1.794 4.166 4 4.166a.5.5 0 010 1c-2.757 0-5-2.317-5-5.166S4.243 0 7 0z" fill="#171B1F" fill-rule="evenodd"/></svg>
